assets/01_base/Base_10.svg

<svg xmlns="http://www.w3.org/2000/svg" width="500" height="500" fill="none" viewBox="0 0 500 500"><g clip-path="url(#Base_10_svg_clip0_70_92)"><g clip-path="url(#Base_10_svg_clip1_70_92)"><path fill="#ffb600" d="M48.547 428.72c55.399 55.468 145.214 55.468 200.614 0l.035-.035a117 117 0 0 0 2.643 2.717c55.4 55.468 145.215 55.468 200.614 0 55.4-55.467 55.4-145.392 0-200.86a147 147 0 0 0-2.714-2.647l.035-.035L249.16 27 48.547 227.86c-55.4 55.468-55.4 145.392 0 200.86"/><path fill="#ffed6c" d="M74.232 377.299c48.302 48.362 126.626 48.362 174.928 0l.036-.035a85 85 0 0 0 2.303 2.364c48.303 48.363 126.626 48.363 174.929 0s48.302-126.781 0-175.143a109 109 0 0 0-2.362-2.306l.035-.035L249.172 27 74.243 202.144c-48.303 48.362-48.303 126.781 0 175.143z"/><path fill="#fbcd5b" d="M101.596 322.49c40.748 40.798 106.817 40.798 147.564 0l.024-.023c.634.67 1.281 1.341 1.939 2 40.747 40.798 106.816 40.798 147.564 0s40.748-106.948 0-147.745a104 104 0 0 0-1.998-1.942l.024-.023L249.149 27.012 101.585 174.757c-40.748 40.798-40.748 106.947 0 147.745z"/></g></g><defs><clipPath id="Base_10_svg_clip0_70_92"><rect width="500" height="500" fill="#fff"/></clipPath><clipPath id="Base_10_svg_clip1_70_92"><rect width="487" height="446" fill="#fff" transform="matrix(-1 0 0 -1 494 473)"/></clipPath></defs></svg>

<svg width="500" height="500" viewBox="0 0 500 500" fill="none" xmlns="http://www.w3.org/2000/svg">
<g clip-path="url(#clip0_70_92)">
<path d="M48.5468 428.72C103.946 484.188 193.761 484.188 249.161 428.72L249.196 428.685C250.065 429.602 250.935 430.508 251.839 431.402C307.239 486.87 397.054 486.87 452.453 431.402C507.853 375.935 507.853 286.01 452.453 230.542C451.56 229.648 450.655 228.766 449.739 227.895L449.774 227.86L249.16 27.0001L48.5468 227.86C-6.85286 283.328 -6.85285 373.252 48.5468 428.72Z" fill="#FFB600"/>
<path d="M74.2315 377.299C122.534 425.661 200.858 425.661 249.16 377.299L249.196 377.264C249.948 378.064 250.711 378.852 251.499 379.628C299.802 427.991 378.125 427.991 426.428 379.628C474.73 331.266 474.73 252.847 426.428 204.485C425.652 203.708 424.865 202.932 424.066 202.179L424.101 202.144L249.172 27L74.2433 202.144C25.9404 250.506 25.9404 328.925 74.2433 377.287L74.2315 377.299Z" fill="#FFED6C"/>
<path d="M101.596 322.49C142.344 363.288 208.413 363.288 249.16 322.49L249.184 322.467C249.818 323.137 250.465 323.808 251.123 324.467C291.87 365.265 357.939 365.265 398.687 324.467C439.435 283.669 439.435 217.519 398.687 176.722C398.029 176.063 397.359 175.416 396.689 174.78L396.713 174.757L249.149 27.0118L101.585 174.757C60.8369 215.555 60.8369 281.704 101.585 322.502L101.596 322.49Z" fill="#FBCD5B"/>
</g>
<defs>
<clipPath id="clip0_70_92">
<rect width="487" height="446" fill="white" transform="translate(494 473) rotate(180)"/>
</clipPath>
</defs>
</svg>
